X: 21112
T: Robin Hood's Delight
%R: reel
B: James Oswald "The Caledonian Pocket Companion" v.2 p.111 #2
Z: 2018 John Chambers <jc:trillian.mit.edu>
M: C|
L: 1/8
K: G	% Actually G lydian, but the ^c is obviously a typo.
|:"_Lively"\
(BG)(BG) (dB)(AG) | E2E2 TE4 | (BG)(BG) (dB)(AG) | D2D2 D4 |\
(BG)(BG) (dB)(AG) | (ec)(BA) d3c | (BG)(cA) E3A | (FD)(FD) G4 :|
|:\
(dB)(dB) (bg)(bg) | d2B2 TB4 | (cA)(cA) (af)(af) | c2A2 TA4 |\
(BG)(BG) (dB)(AG) | (EA) (cd) (ec)(BA) | (BG)(ge) B3c | (Ec)(AB) G2G,2 :|


